2.WithTST/chrome/icons/screenshot.svg

<svg xmlns="http://www.w3.org/2000/svg" width="16" height="16" viewBox="0 0 16 16">
   <path
   style="fill:context-fill;fill-opacity:context-fill-opacity"
   d="M 3 1 C 1.89543 1 1 1.89543 1 3 L 1 13 C 1 14.1046 1.89543 15 3 15 L 13 15 C 14.1046 15 15 14.1046 15 13 L 15 3 C 15 1.89543 14.1046 1 13 1 L 3 1 z M 3 2 L 13 2 C 13.5523 2 14 2.44772 14 3 L 14 13 C 14 13.5523 13.5523 14 13 14 L 3 14 C 2.44772 14 2 13.5523 2 13 L 2 3 C 2 2.44772 2.44772 2 3 2 z M 4.5 3 C 3.67157 3 3 3.67157 3 4.5 L 3 6.5 C 3 6.77614 3.22386 7 3.5 7 C 3.77614 7 4 6.77614 4 6.5 L 4 4.5 C 4 4.22386 4.22386 4 4.5 4 L 6.5 4 C 6.77614 4 7 3.77614 7 3.5 C 7 3.22386 6.77614 3 6.5 3 L 4.5 3 z M 9.5 3 C 9.2239 3 9 3.22386 9 3.5 C 9 3.77614 9.2239 4 9.5 4 L 11.5 4 C 11.7761 4 12 4.22386 12 4.5 L 12 6.5 C 12 6.77614 12.2239 7 12.5 7 C 12.7761 7 13 6.77614 13 6.5 L 13 4.5 C 13 3.67157 12.3284 3 11.5 3 L 9.5 3 z M 3.5 9 C 3.22386 9 3 9.2239 3 9.5 L 3 11.5 C 3 12.3284 3.67157 13 4.5 13 L 6.5 13 C 6.77614 13 7 12.7761 7 12.5 C 7 12.2239 6.77614 12 6.5 12 L 4.5 12 C 4.22386 12 4 11.7761 4 11.5 L 4 9.5 C 4 9.2239 3.77614 9 3.5 9 z M 12.5 9 C 12.2239 9 12 9.2239 12 9.5 L 12 11.5 C 12 11.7761 11.7761 12 11.5 12 L 9.5 12 C 9.2239 12 9 12.2239 9 12.5 C 9 12.7761 9.2239 13 9.5 13 L 11.5 13 C 12.3284 13 13 12.3284 13 11.5 L 13 9.5 C 13 9.2239 12.7761 9 12.5 9 z " />
</svg>

<svg xmlns="http://www.w3.org/2000/svg" width="16" height="16">
  <path style="fill:context-fill;fill-opacity:context-fill-opacity" d="M3 1a2 2 0 0 0-2 2v10a2 2 0 0 0 2 2h10a2 2 0 0 0 2-2V3a2 2 0 0 0-2-2H3zm0 1h10a1 1 0 0 1 1 1v10a1 1 0 0 1-1 1H3a1 1 0 0 1-1-1V3a1 1 0 0 1 1-1zm1.5 1A1.5 1.5 0 0 0 3 4.5v2a.5.5 0 0 0 1 0v-2a.5.5 0 0 1 .5-.5h2a.5.5 0 0 0 0-1h-2zm5 0a.5.5 0 0 0 0 1h2a.5.5 0 0 1 .5.5v2a.5.5 0 0 0 1 0v-2A1.5 1.5 0 0 0 11.5 3h-2zm-6 6a.5.5 0 0 0-.5.5v2A1.5 1.5 0 0 0 4.5 13h2a.5.5 0 0 0 0-1h-2a.5.5 0 0 1-.5-.5v-2a.5.5 0 0 0-.5-.5zm9 0a.5.5 0 0 0-.5.5v2a.5.5 0 0 1-.5.5h-2a.5.5 0 0 0 0 1h2a1.5 1.5 0 0 0 1.5-1.5v-2a.5.5 0 0 0-.5-.5z"/>
</svg>
